dist/img/icons/Header/settings-popup/moon.svg

<svg width="38" height="38" viewBox="0 0 38 38" fill="none" xmlns="http://www.w3.org/2000/svg">
<path d="M37.4125 25.6772C37.8375 24.6647 36.6229 23.8022 35.6042 24.2522C33.5678 25.1461 31.3676 25.6058 29.1437 25.6022C20.425 25.6022 13.3583 18.6772 13.3583 10.1335C13.3551 7.24876 14.1747 4.42297 15.7208 1.98762C16.3125 1.05429 15.6021 -0.237377 14.5187 0.0376231C6.16667 2.16887 0 9.61054 0 18.4626C0 28.9772 8.69792 37.5001 19.4292 37.5001C27.5542 37.5001 34.5125 32.6147 37.4125 25.6772Z" fill="#651FFF"/>
<path d="M26.2729 0.214702C25.1688 -0.522798 23.8521 0.793869 24.5875 1.89804L25.9 3.86679C26.4325 4.66504 26.7166 5.60309 26.7166 6.56262C26.7166 7.52215 26.4325 8.46019 25.9 9.25845L24.5875 11.2272C23.8521 12.3314 25.1709 13.648 26.275 12.9105L28.2417 11.598C29.0399 11.0656 29.978 10.7815 30.9375 10.7815C31.8971 10.7815 32.8351 11.0656 33.6333 11.598L35.6021 12.9105C36.7063 13.648 38.0229 12.3314 37.2854 11.2272L35.9729 9.25845C35.4405 8.46019 35.1564 7.52215 35.1564 6.56262C35.1564 5.60309 35.4405 4.66504 35.9729 3.86679L37.2854 1.89804C38.0229 0.793869 36.7063 -0.522798 35.6 0.214702L33.6333 1.5272C32.8351 2.05964 31.8971 2.34377 30.9375 2.34377C29.978 2.34377 29.0399 2.05964 28.2417 1.5272L26.2729 0.214702Z" fill="#651FFF"/>
</svg>

<svg width="38" height="38" fill="none" xmlns="http://www.w3.org/2000/svg"><path d="M37.413 25.677c.425-1.012-.79-1.875-1.809-1.425a16.008 16.008 0 0 1-6.46 1.35c-8.719 0-15.786-6.925-15.786-15.469a15.167 15.167 0 0 1 2.363-8.145c.591-.934-.119-2.225-1.202-1.95C6.167 2.168 0 9.61 0 18.463 0 28.977 8.698 37.5 19.43 37.5c8.124 0 15.083-4.885 17.983-11.823Z" fill="#651FFF"/><path d="M26.273.215c-1.104-.738-2.42.579-1.686 1.683L25.9 3.867a4.858 4.858 0 0 1 0 5.391l-1.313 1.97c-.735 1.103.584 2.42 1.688 1.683l1.967-1.313a4.858 4.858 0 0 1 5.391 0l1.97 1.313c1.103.737 2.42-.58 1.682-1.684l-1.312-1.969a4.859 4.859 0 0 1 0-5.391l1.312-1.969C38.023.794 36.706-.522 35.6.215l-1.967 1.312a4.858 4.858 0 0 1-5.391 0L26.272.215Z" fill="#651FFF"/></svg>
